public/logos/JL.svg

<?xml version="1.0" encoding="UTF-8"?>
<svg xmlns="http://www.w3.org/2000/svg" xmlns:xlink="http://www.w3.org/1999/xlink" width="117.84pt" height="127.4pt" viewBox="0 0 117.84 127.4" version="1.1">
<defs>
<clipPath id="clip1">
  <path d="M 107 120 L 117.839844 120 L 117.839844 127.398438 L 107 127.398438 Z M 107 120 "/>
</clipPath>
<clipPath id="clip2">
  <path d="M 59 120 L 66 120 L 66 127.398438 L 59 127.398438 Z M 59 120 "/>
</clipPath>
<clipPath id="clip3">
  <path d="M 83 120 L 89 120 L 89 127.398438 L 83 127.398438 Z M 83 120 "/>
</clipPath>
<clipPath id="clip4">
  <path d="M 98 120 L 109 120 L 109 127.398438 L 98 127.398438 Z M 98 120 "/>
</clipPath>
<clipPath id="clip5">
  <path d="M 35 120 L 47 120 L 47 127.398438 L 35 127.398438 Z M 35 120 "/>
</clipPath>
<clipPath id="clip6">
  <path d="M 88 120 L 100 120 L 100 127.398438 L 88 127.398438 Z M 88 120 "/>
</clipPath>
<clipPath id="clip7">
  <path d="M 0 120 L 9 120 L 9 127.398438 L 0 127.398438 Z M 0 120 "/>
</clipPath>
<clipPath id="clip8">
  <path d="M 16 120 L 28 120 L 28 127.398438 L 16 127.398438 Z M 16 120 "/>
</clipPath>
<clipPath id="clip9">
  <path d="M 64 120 L 76 120 L 76 127.398438 L 64 127.398438 Z M 64 120 "/>
</clipPath>
<clipPath id="clip10">
  <path d="M 75 120 L 83 120 L 83 127.398438 L 75 127.398438 Z M 75 120 "/>
</clipPath>
<clipPath id="clip11">
  <path d="M 6 120 L 16 120 L 16 127.398438 L 6 127.398438 Z M 6 120 "/>
</clipPath>
<clipPath id="clip12">
  <path d="M 25 120 L 35 120 L 35 127.398438 L 25 127.398438 Z M 25 120 "/>
</clipPath>
<clipPath id="clip13">
  <path d="M 49 120 L 59 120 L 59 127.398438 L 49 127.398438 Z M 49 120 "/>
</clipPath>
</defs>
<g id="surface1">
<path style=" stroke:none;fill-rule:nonzero;fill:rgb(91.654968%,11.885071%,15.591431%);fill-opacity:1;" d="M 60.199219 84.5 L 64.300781 84.5 L 64.101562 79.800781 L 60.199219 84.5 "/>
<path style=" stroke:none;fill-rule:nonzero;fill:rgb(91.654968%,11.885071%,15.591431%);fill-opacity:1;" d="M 83.101562 58.800781 C 72.398438 69.199219 56.5 62.601562 58.101562 49.800781 C 59.398438 40 71.398438 30.199219 80.5 24.898438 L 80.5 24.800781 C 79.300781 23.699219 76.800781 21.101562 75.199219 19.199219 C 70.800781 13.898438 63 13.699219 58.398438 19.5 L 32.101562 21.898438 C 32 21.898438 32 22.101562 32.101562 22.101562 L 60.199219 23.699219 C 65.199219 24 66.800781 28.5 62 32.199219 C 44.300781 45.601562 41.101562 60 45.101562 71.300781 L 45 71.398438 C 43.398438 69.101562 42.101562 66.199219 41.5 63.199219 C 32.898438 57.800781 25.898438 47.5 25.898438 34.898438 C 25.898438 16.5 40.898438 1.300781 59.5 1.300781 C 78.101562 1.300781 93.101562 16.5 93.101562 34.898438 C 93.101562 44.898438 88.699219 53.300781 83.101562 58.800781 Z M 89.699219 90.300781 L 73.5 90.300781 L 79.199219 75.398438 L 86.300781 75.398438 L 81.800781 87.199219 L 90.898438 87.199219 Z M 64.5 90.300781 L 64.398438 87.398438 L 58 87.398438 L 55.601562 90.300781 L 49.699219 90.300781 L 61.601562 76.5 C 62.199219 75.800781 63 75.398438 63.800781 75.398438 L 70.199219 75.398438 L 71.601562 90.300781 Z M 40.101562 90.800781 C 38.199219 90.800781 36.5 90.601562 35.199219 90.300781 L 36.398438 87.101562 C 39.699219 87.5 42.5 87.199219 43.5 84.300781 L 47 75.300781 L 54.101562 75.300781 L 50.300781 85.199219 C 48.300781 90.398438 43.5 90.800781 40.101562 90.800781 Z M 111.5 56.800781 C 111.800781 53.5 111.699219 48.800781 111.199219 45.300781 L 111.101562 45.300781 C 110 50.398438 106.699219 57.300781 99.601562 62.898438 L 99.5 62.800781 C 105.699219 56.101562 109.5 47.898438 110 39.5 C 108.800781 34.800781 107 30.300781 104.699219 26.398438 L 104.601562 26.398438 C 105.898438 34.898438 103.800781 46.199219 95.601562 55.398438 L 95.5 55.300781 C 102.601562 45 104.5 32.5 101.398438 21.300781 C 92 8.300781 76.699219 0 59.5 0 C 42.300781 0 27 8.300781 17.5 21.199219 C 14.398438 32.398438 16.199219 45 23.398438 55.199219 L 23.300781 55.300781 C 15 46.199219 13 34.898438 14.300781 26.300781 L 14.199219 26.300781 C 11.898438 30.300781 10.101562 34.800781 8.898438 39.398438 C 9.5 47.800781 13.199219 56.101562 19.398438 62.699219 L 19.300781 62.800781 C 12.199219 57.199219 8.898438 50.300781 7.800781 45.199219 L 7.699219 45.199219 C 7.199219 48.699219 7.101562 53.398438 7.398438 56.699219 C 9.199219 62.300781 13 67 17 70.398438 L 17 70.601562 C 12.601562 67.898438 10.199219 65.199219 8.5 62.898438 L 8.398438 62.898438 C 13.199219 86.300781 34.199219 104.398438 59.5 104.398438 C 84.800781 104.398438 105.800781 86.398438 110.601562 62.898438 L 110.5 62.898438 C 108.800781 65.300781 106.398438 67.898438 102 70.601562 L 101.898438 70.5 C 105.800781 67.101562 109.699219 62.398438 111.5 56.800781 "/>
<g clip-path="url(#clip1)" clip-rule="nonzero">
<path style=" stroke:none;fill-rule:nonzero;fill:rgb(12.866211%,11.170959%,11.180115%);fill-opacity:1;" d="M 117 125.199219 C 116.300781 126.898438 114.101562 127.398438 111.601562 127.398438 C 109.199219 127.398438 107.601562 126.898438 108 125.199219 L 111.101562 125.199219 C 111 125.699219 111.300781 125.898438 112.199219 125.898438 C 113.101562 125.898438 113.699219 125.601562 113.898438 125.199219 C 114.300781 124.101562 108.199219 125.199219 109.199219 122.601562 C 109.699219 121.199219 111.898438 120.5 114.300781 120.5 C 116.699219 120.5 118.101562 121 117.800781 122.601562 L 114.800781 122.601562 C 114.800781 122.199219 114.699219 121.898438 113.800781 121.898438 C 112.898438 121.898438 112.398438 122.199219 112.199219 122.601562 C 111.800781 123.699219 118 122.601562 117 125.199219 "/>
</g>
<g clip-path="url(#clip2)" clip-rule="nonzero">
<path style=" stroke:none;fill-rule:nonzero;fill:rgb(12.866211%,11.170959%,11.180115%);fill-opacity:1;" d="M 62.601562 127.199219 L 59.5 127.199219 L 62 120.699219 L 65.101562 120.699219 L 62.601562 127.199219 "/>
</g>
<g clip-path="url(#clip3)" clip-rule="nonzero">
<path style=" stroke:none;fill-rule:nonzero;fill:rgb(12.866211%,11.170959%,11.180115%);fill-opacity:1;" d="M 86.101562 127.199219 L 83 127.199219 L 85.5 120.699219 L 88.601562 120.699219 L 86.101562 127.199219 "/>
</g>
<g clip-path="url(#clip4)" clip-rule="nonzero">
<path style=" stroke:none;fill-rule:nonzero;fill:rgb(12.866211%,11.170959%,11.180115%);fill-opacity:1;" d="M 106.101562 127.199219 L 98.601562 127.199219 L 101.101562 120.699219 L 108.699219 120.699219 L 108.199219 121.898438 L 103.699219 121.898438 L 103.199219 123.300781 L 106.898438 123.300781 L 106.398438 124.5 L 102.699219 124.5 L 102.199219 125.800781 L 106.699219 125.800781 L 106.101562 127.199219 "/>
</g>
<g clip-path="url(#clip5)" clip-rule="nonzero">
<path style=" stroke:none;fill-rule:nonzero;fill:rgb(12.866211%,11.170959%,11.180115%);fill-opacity:1;" d="M 44.398438 127.199219 L 41.800781 127.199219 L 39.699219 123.398438 L 38.300781 127.199219 L 35.800781 127.199219 L 38.300781 120.699219 L 41.199219 120.699219 L 43 124.101562 L 44.398438 120.699219 L 46.898438 120.699219 L 44.398438 127.199219 "/>
</g>
<g clip-path="url(#clip6)" clip-rule="nonzero">
<path style=" stroke:none;fill-rule:nonzero;fill:rgb(12.866211%,11.170959%,11.180115%);fill-opacity:1;" d="M 96.699219 127.199219 L 94.101562 127.199219 L 92 123.398438 L 90.601562 127.199219 L 88 127.199219 L 90.5 120.699219 L 93.5 120.699219 L 95.300781 124.101562 L 96.699219 120.699219 L 99.199219 120.699219 L 96.699219 127.199219 "/>
</g>
<g clip-path="url(#clip7)" clip-rule="nonzero">
<path style=" stroke:none;fill-rule:nonzero;fill:rgb(12.866211%,11.170959%,11.180115%);fill-opacity:1;" d="M 6.601562 125 C 5.699219 127.199219 3.601562 127.398438 2.199219 127.398438 C 1.398438 127.398438 0.601562 127.300781 0 127.199219 L 0.5 125.800781 C 1.898438 126 3.101562 125.800781 3.601562 124.601562 L 5.101562 120.699219 L 8.199219 120.699219 L 6.601562 125 "/>
</g>
<g clip-path="url(#clip8)" clip-rule="nonzero">
<path style=" stroke:none;fill-rule:nonzero;fill:rgb(12.866211%,11.170959%,11.180115%);fill-opacity:1;" d="M 24.398438 122.800781 C 24.199219 123.300781 23.601562 123.601562 23.101562 123.601562 L 21.398438 123.601562 L 22 122 L 23.699219 122 C 24.300781 121.898438 24.601562 122.300781 24.398438 122.800781 Z M 24.199219 120.699219 L 19.398438 120.699219 L 16.898438 127.199219 L 20 127.199219 L 20.898438 124.800781 L 22.601562 124.800781 C 25.5 124.800781 27 124 27.5 122.699219 C 28.101562 121.5 27.101562 120.699219 24.199219 120.699219 "/>
</g>
<g clip-path="url(#clip9)" clip-rule="nonzero">
<path style=" stroke:none;fill-rule:nonzero;fill:rgb(12.866211%,11.170959%,11.180115%);fill-opacity:1;" d="M 72.101562 122.800781 C 71.898438 123.300781 71.300781 123.601562 70.800781 123.601562 L 69 123.601562 L 69.601562 122 L 71.300781 122 C 72 121.898438 72.300781 122.300781 72.101562 122.800781 Z M 71.898438 120.699219 L 67 120.699219 L 64.5 127.199219 L 67.601562 127.199219 L 68.5 124.800781 L 69.398438 124.800781 L 70 127.199219 L 73.398438 127.199219 L 72.601562 124.601562 C 74 124.300781 74.800781 123.601562 75.101562 122.800781 C 75.699219 121.5 74.699219 120.699219 71.898438 120.699219 "/>
</g>
<g clip-path="url(#clip10)" clip-rule="nonzero">
<path style=" stroke:none;fill-rule:nonzero;fill:rgb(12.866211%,11.170959%,11.180115%);fill-opacity:1;" d="M 78.699219 125.800781 L 80.699219 120.699219 L 77.5 120.699219 L 75 127.199219 L 82.101562 127.199219 L 82.601562 125.800781 L 78.699219 125.800781 "/>
</g>
<g clip-path="url(#clip11)" clip-rule="nonzero">
<path style=" stroke:none;fill-rule:nonzero;fill:rgb(12.866211%,11.170959%,11.180115%);fill-opacity:1;" d="M 11.101562 124.699219 L 12.800781 122.601562 L 12.898438 124.699219 Z M 15.5 120.699219 L 12.699219 120.699219 C 12.398438 120.699219 12 120.898438 11.699219 121.199219 L 6.5 127.199219 L 9.101562 127.199219 L 10.101562 125.898438 L 12.898438 125.898438 L 12.898438 127.199219 L 16 127.199219 L 15.5 120.699219 "/>
</g>
<g clip-path="url(#clip12)" clip-rule="nonzero">
<path style=" stroke:none;fill-rule:nonzero;fill:rgb(12.866211%,11.170959%,11.180115%);fill-opacity:1;" d="M 30 124.699219 L 31.699219 122.601562 L 31.800781 124.699219 Z M 34.300781 120.699219 L 31.5 120.699219 C 31.199219 120.699219 30.800781 120.898438 30.5 121.199219 L 25.300781 127.199219 L 28 127.199219 L 29 125.898438 L 31.800781 125.898438 L 31.800781 127.199219 L 35 127.199219 L 34.300781 120.699219 "/>
</g>
<g clip-path="url(#clip13)" clip-rule="nonzero">
<path style=" stroke:none;fill-rule:nonzero;fill:rgb(12.866211%,11.170959%,11.180115%);fill-opacity:1;" d="M 53.699219 124.699219 L 55.398438 122.601562 L 55.5 124.699219 Z M 58.101562 120.699219 L 55.300781 120.699219 C 55 120.699219 54.601562 120.898438 54.300781 121.199219 L 49.101562 127.199219 L 51.699219 127.199219 L 52.699219 125.898438 L 55.5 125.898438 L 55.601562 127.199219 L 58.699219 127.199219 L 58.101562 120.699219 "/>
</g>
</g>
</svg>

<svg xmlns="http://www.w3.org/2000/svg" width="157.12" height="127.4pt" viewBox="0 0 117.84 127.4"><defs><clipPath id="a"><path d="M107 120h10.84v7.398H107Zm0 0"/></clipPath><clipPath id="b"><path d="M59 120h7v7.398h-7Zm0 0"/></clipPath><clipPath id="c"><path d="M83 120h6v7.398h-6Zm0 0"/></clipPath><clipPath id="d"><path d="M98 120h11v7.398H98Zm0 0"/></clipPath><clipPath id="e"><path d="M35 120h12v7.398H35Zm0 0"/></clipPath><clipPath id="f"><path d="M88 120h12v7.398H88Zm0 0"/></clipPath><clipPath id="g"><path d="M0 120h9v7.398H0Zm0 0"/></clipPath><clipPath id="h"><path d="M16 120h12v7.398H16Zm0 0"/></clipPath><clipPath id="i"><path d="M64 120h12v7.398H64Zm0 0"/></clipPath><clipPath id="j"><path d="M75 120h8v7.398h-8Zm0 0"/></clipPath><clipPath id="k"><path d="M6 120h10v7.398H6Zm0 0"/></clipPath><clipPath id="l"><path d="M25 120h10v7.398H25Zm0 0"/></clipPath><clipPath id="m"><path d="M49 120h10v7.398H49Zm0 0"/></clipPath></defs><path d="M60.2 84.5h4.1l-.198-4.7z" style="stroke:none;fill-rule:nonzero;fill:#ea1e28;fill-opacity:1"/><path d="M83.102 58.8c-10.704 10.4-26.602 3.802-25-9C59.398 40 71.398 30.2 80.5 24.899v-.097c-1.2-1.102-3.7-3.7-5.3-5.602-4.4-5.3-12.2-5.5-16.802.301l-26.296 2.398c-.102 0-.102.204 0 .204l28.097 1.597C65.2 24 66.801 28.5 62 32.2 44.3 45.602 41.102 60 45.102 71.301l-.102.097a22.4 22.4 0 0 1-3.5-8.199C32.898 57.801 25.898 47.5 25.898 34.9 25.898 16.5 40.898 1.3 59.5 1.3S93.102 16.5 93.102 34.898c0 10-4.403 18.403-10 23.903m6.597 31.5H73.5l5.7-14.902h7.1L81.8 87.2h9.098Zm-25.199 0-.102-2.902H58l-2.398 2.903h-5.903L61.602 76.5c.597-.7 1.398-1.102 2.199-1.102h6.398l1.403 14.903Zm-24.398.5c-1.903 0-3.602-.198-4.903-.5l1.2-3.198c3.3.398 6.101.097 7.101-2.801l3.5-9h7.102L50.3 85.199c-2 5.2-6.801 5.602-10.2 5.602m71.398-34c.3-3.3.2-8-.3-11.5h-.098c-1.102 5.098-4.403 12-11.5 17.598l-.102-.097c6.2-6.7 10-14.903 10.5-23.301-1.2-4.7-3-9.2-5.3-13.102h-.098c1.296 8.5-.801 19.801-9 29l-.102-.097c7.102-10.301 9-22.801 5.898-34C92 8.3 76.7 0 59.5 0S27 8.3 17.5 21.2c-3.102 11.198-1.3 23.8 5.898 34l-.097.1C15 46.2 13 34.899 14.3 26.3h-.102c-2.3 4-4.097 8.5-5.3 13.098.601 8.403 4.3 16.704 10.5 23.301l-.098.102C12.199 57.199 8.898 50.3 7.8 45.199h-.102c-.5 3.5-.597 8.2-.3 11.5C9.198 62.301 13 67 17 70.4v.203c-4.398-2.704-6.8-5.403-8.5-7.704h-.102c4.801 23.403 25.801 41.5 51.102 41.5s46.3-18 51.102-41.5h-.102c-1.7 2.403-4.102 5-8.5 7.704l-.102-.102c3.903-3.398 7.801-8.102 9.602-13.7" style="stroke:none;fill-rule:nonzero;fill:#ea1e28;fill-opacity:1"/><g clip-path="url(#a)"><path d="M117 125.2c-.7 1.698-2.898 2.198-5.398 2.198-2.403 0-4-.5-3.602-2.199h3.102c-.102.5.199.7 1.097.7.903 0 1.5-.297 1.7-.7.402-1.097-5.7 0-4.7-2.597.5-1.403 2.7-2.102 5.102-2.102 2.398 0 3.8.5 3.5 2.102h-3c0-.403-.102-.704-1-.704-.903 0-1.403.301-1.602.704-.398 1.097 5.801 0 4.801 2.597" style="stroke:none;fill-rule:nonzero;fill:#211c1d;fill-opacity:1"/></g><g clip-path="url(#b)"><path d="M62.602 127.2H59.5l2.5-6.5h3.102z" style="stroke:none;fill-rule:nonzero;fill:#211c1d;fill-opacity:1"/></g><g clip-path="url(#c)"><path d="M86.102 127.2H83l2.5-6.5h3.102z" style="stroke:none;fill-rule:nonzero;fill:#211c1d;fill-opacity:1"/></g><g clip-path="url(#d)"><path d="M106.102 127.2h-7.5l2.5-6.5h7.597l-.5 1.198h-4.5l-.5 1.403h3.7l-.5 1.199h-3.7l-.5 1.3h4.5z" style="stroke:none;fill-rule:nonzero;fill:#211c1d;fill-opacity:1"/></g><g clip-path="url(#e)"><path d="M44.398 127.2h-2.597l-2.102-3.802-1.398 3.801h-2.5l2.5-6.5h2.898L43 124.102l1.398-3.403h2.5z" style="stroke:none;fill-rule:nonzero;fill:#211c1d;fill-opacity:1"/></g><g clip-path="url(#f)"><path d="M96.7 127.2h-2.598L92 123.397l-1.398 3.801H88l2.5-6.5h3l1.8 3.403 1.4-3.403h2.5z" style="stroke:none;fill-rule:nonzero;fill:#211c1d;fill-opacity:1"/></g><g clip-path="url(#g)"><path d="M6.602 125c-.903 2.2-3 2.398-4.403 2.398-.8 0-1.597-.097-2.199-.199l.5-1.398c1.398.199 2.602 0 3.102-1.2l1.5-3.902h3.097z" style="stroke:none;fill-rule:nonzero;fill:#211c1d;fill-opacity:1"/></g><g clip-path="url(#h)"><path d="M24.398 122.8c-.199.5-.796.802-1.296.802h-1.704L22 122h1.7c.6-.102.902.3.698.8m-.199-2.1h-4.8l-2.5 6.5H20l.898-2.4h1.704c2.898 0 4.398-.8 4.898-2.1.602-1.2-.398-2-3.3-2" style="stroke:none;fill-rule:nonzero;fill:#211c1d;fill-opacity:1"/></g><g clip-path="url(#i)"><path d="M72.102 122.8c-.204.5-.801.802-1.301.802H69l.602-1.602H71.3c.699-.102 1 .3.8.8m-.204-2.1H67l-2.5 6.5h3.102l.898-2.4h.898l.602 2.4h3.398l-.796-2.598c1.398-.301 2.199-1 2.5-1.801.597-1.301-.403-2.102-3.204-2.102" style="stroke:none;fill-rule:nonzero;fill:#211c1d;fill-opacity:1"/></g><g clip-path="url(#j)"><path d="m78.7 125.8 2-5.1h-3.2l-2.5 6.5h7.102l.5-1.4z" style="stroke:none;fill-rule:nonzero;fill:#211c1d;fill-opacity:1"/></g><g clip-path="url(#k)"><path d="m11.102 124.7 1.699-2.098.097 2.097Zm4.398-4h-2.8c-.302 0-.7.198-1 .5l-5.2 6h2.602l1-1.302h2.796v1.301H16z" style="stroke:none;fill-rule:nonzero;fill:#211c1d;fill-opacity:1"/></g><g clip-path="url(#l)"><path d="m30 124.7 1.7-2.098.1 2.097Zm4.3-4h-2.8c-.3 0-.7.198-1 .5l-5.2 6H28l1-1.302h2.8v1.301H35z" style="stroke:none;fill-rule:nonzero;fill:#211c1d;fill-opacity:1"/></g><g clip-path="url(#m)"><path d="m53.7 124.7 1.698-2.098.102 2.097Zm4.402-4H55.3c-.301 0-.7.198-1 .5l-5.2 6H51.7l1-1.302H55.5l.102 1.301h3.097z" style="stroke:none;fill-rule:nonzero;fill:#211c1d;fill-opacity:1"/></g></svg>
